src/assets/icons/calendar-times.svg

<svg width="14" height="14" viewBox="0 0 14 14" fill="none" xmlns="http://www.w3.org/2000/svg">
<g id="calendar-times">
<path id="Vector" fill-rule="evenodd" clip-rule="evenodd" d="M4.72973 0C5.04319 0 5.29729 0.254109 5.29729 0.567568V1.51351H8.7027V0.567568C8.7027 0.254109 8.95681 0 9.27027 0C9.58372 0 9.83783 0.254109 9.83783 0.567568V1.51351H10.7838C11.9331 1.51351 12.8649 2.44525 12.8649 3.59459V11.9189C12.8649 13.0683 11.9331 14 10.7838 14H3.21621C2.06686 14 1.13513 13.0683 1.13513 11.9189V3.59459C1.13513 2.44525 2.06686 1.51351 3.21621 1.51351H4.16216V0.567568C4.16216 0.254109 4.41627 0 4.72973 0ZM8.7027 2.64865V3.59459C8.7027 3.90805 8.95681 4.16216 9.27027 4.16216C9.58372 4.16216 9.83783 3.90805 9.83783 3.59459V2.64865H10.7838C11.3062 2.64865 11.7297 3.07216 11.7297 3.59459V5.67568H2.27027V3.59459C2.27027 3.07216 2.69378 2.64865 3.21621 2.64865H4.16216V3.59459C4.16216 3.90805 4.41627 4.16216 4.72973 4.16216C5.04319 4.16216 5.29729 3.90805 5.29729 3.59459V2.64865H8.7027ZM2.27027 6.81081V11.9189C2.27027 12.4414 2.69378 12.8649 3.21621 12.8649H10.7838C11.3062 12.8649 11.7297 12.4414 11.7297 11.9189V6.81081H2.27027ZM8.46836 8.55874C8.69001 8.78039 8.69001 9.13975 8.46836 9.3614L7.80266 10.0271L8.46836 10.6928C8.69001 10.9144 8.69001 11.2738 8.46836 11.4955C8.24671 11.7171 7.88734 11.7171 7.66569 11.4955L7 10.8298L6.3343 11.4955C6.11265 11.7171 5.75328 11.7171 5.53164 11.4955C5.30999 11.2738 5.30999 10.9144 5.53164 10.6928L6.19733 10.0271L5.53164 9.3614C5.30999 9.13975 5.30999 8.78039 5.53164 8.55874C5.75328 8.33709 6.11265 8.33709 6.3343 8.55874L7 9.22443L7.66569 8.55874C7.88734 8.33709 8.24671 8.33709 8.46836 8.55874Z" fill="black"/>
</g>
</svg>

<svg xmlns="http://www.w3.org/2000/svg" fill="none" viewBox="0 0 14 14"><path fill="#000" fill-rule="evenodd" d="M4.73 0c.313 0 .567.254.567.568v.946h3.406V.568a.568.568 0 0 1 1.135 0v.946h.946c1.15 0 2.08.931 2.08 2.08v8.325c0 1.15-.93 2.081-2.08 2.081H3.216a2.08 2.08 0 0 1-2.08-2.081V3.595c0-1.15.93-2.081 2.08-2.081h.946V.568c0-.314.254-.568.568-.568m3.973 2.649v.946a.568.568 0 0 0 1.135 0v-.946h.946c.522 0 .946.423.946.946v2.08H2.27v-2.08c0-.523.424-.946.946-.946h.946v.946a.568.568 0 0 0 1.135 0v-.946zM2.27 6.81v5.108c0 .522.424.946.946.946h7.568a.946.946 0 0 0 .946-.946V6.81zm6.198 1.748a.57.57 0 0 1 0 .802l-.665.666.665.666a.568.568 0 0 1-.802.803L7 10.83l-.666.665a.568.568 0 0 1-.802-.802l.665-.666-.665-.666a.568.568 0 1 1 .802-.802L7 9.224l.666-.665a.57.57 0 0 1 .802 0" clip-rule="evenodd"/></svg>
